Numix-GalliumOS/24/categories/applications-graphics.svg

<?xml version="1.0" encoding="UTF-8" standalone="no"?>
<svg
   xmlns:dc="http://purl.org/dc/elements/1.1/"
   xmlns:cc="http://creativecommons.org/ns#"
   xmlns:rdf="http://www.w3.org/1999/02/22-rdf-syntax-ns#"
   xmlns:svg="http://www.w3.org/2000/svg"
   xmlns="http://www.w3.org/2000/svg"
   xmlns:sodipodi="http://sodipodi.sourceforge.net/DTD/sodipodi-0.dtd"
   xmlns:inkscape="http://www.inkscape.org/namespaces/inkscape"
   width="24"
   height="24"
   viewBox="0 0 24 24"
   id="svg2"
   version="1.1"
   inkscape:version="0.91 r"
   sodipodi:docname="applications-graphics.svg">
  <metadata
     id="metadata16">
    <rdf:RDF>
      <cc:Work
         rdf:about="">
        <dc:format>image/svg+xml</dc:format>
        <dc:type
           rdf:resource="http://purl.org/dc/dcmitype/StillImage" />
      </cc:Work>
    </rdf:RDF>
  </metadata>
  <defs
     id="defs14" />
  <sodipodi:namedview
     pagecolor="#ffffff"
     bordercolor="#666666"
     borderopacity="1"
     objecttolerance="10"
     gridtolerance="10"
     guidetolerance="10"
     inkscape:pageopacity="0"
     inkscape:pageshadow="2"
     inkscape:window-width="640"
     inkscape:window-height="480"
     id="namedview12" />
  <g
     style="fill:#4ea34d"
     id="g4">
    <path
       d="M 11.808594 8.160156 C 8 8.328125 4.296875 10.183594 5.871094 13.941406 C 8.164062 13.078125 11.359375 14.367188 10.03125 15.003906 C 12.644531 17.15625 19.097656 13.679688 18.457031 10.722656 C 17.789062 8.921875 14.769531 8.027344 11.808594 8.160156 Z M 11.707031 9.222656 C 12.5 9.222656 13.144531 9.433594 13.144531 9.695312 C 13.144531 9.957031 12.5 10.167969 11.707031 10.167969 C 10.914062 10.167969 10.269531 9.957031 10.269531 9.695312 C 10.269531 9.433594 10.914062 9.222656 11.707031 9.222656 Z M 15.257812 10.003906 C 16.050781 10.003906 16.695312 10.21875 16.695312 10.480469 C 16.695312 10.742188 16.050781 10.953125 15.257812 10.953125 C 14.464844 10.953125 13.820312 10.742188 13.820312 10.480469 C 13.820312 10.21875 14.464844 10.003906 15.257812 10.003906 Z M 8.730469 10.722656 C 9.523438 10.722656 10.167969 10.9375 10.167969 11.199219 C 10.167969 11.460938 9.523438 11.671875 8.730469 11.671875 C 7.933594 11.671875 7.292969 11.460938 7.292969 11.199219 C 7.292969 10.9375 7.933594 10.722656 8.730469 10.722656 Z M 15.222656 11.964844 C 16.019531 11.964844 16.664062 12.175781 16.664062 12.4375 C 16.664062 12.699219 16.019531 12.914062 15.222656 12.914062 C 14.429688 12.914062 13.785156 12.699219 13.785156 12.4375 C 13.785156 12.175781 14.429688 11.964844 15.222656 11.964844 Z M 12.722656 13.761719 C 13.515625 13.761719 14.160156 13.972656 14.160156 14.234375 C 14.160156 14.496094 13.515625 14.710938 12.722656 14.710938 C 11.925781 14.710938 11.285156 14.496094 11.285156 14.234375 C 11.285156 13.972656 11.925781 13.761719 12.722656 13.761719 Z "
       id="path6" />
    <path
       d="M 17.230469 4.554688 L 10.175781 16.355469 C 9.625 16.347656 9.113281 16.085938 8.742188 15.558594 L 16.300781 4.035156 C 16.8125 3.917969 17.121094 4.089844 17.230469 4.554688 Z "
       id="path8" />
    <path
       d="M 8.703125 18.410156 C 9.492188 18.304688 10.71875 17.296875 10.144531 15.835938 C 8.773438 15.441406 9.085938 15.242188 9.085938 15.242188 C 7.203125 15.695312 5.769531 17.847656 6.164062 19.21875 C 6.414062 20.085938 6.371094 19.996094 6.371094 19.996094 C 6.894531 18.320312 6.902344 18.625 8.703125 18.410156 Z "
       id="path10" />
  </g>
</svg>

<svg xmlns="http://www.w3.org/2000/svg" viewBox="0 0 24 24">
 <g style="fill:#4ea34d">
  <path d="m 11.809 8.16 c -3.809 0.168 -7.512 2.023 -5.937 5.781 c 2.293 -0.863 5.488 0.426 4.16 1.063 c 2.613 2.152 9.07 -1.324 8.426 -4.281 c -0.668 -1.801 -3.688 -2.695 -6.648 -2.563 m -0.102 1.063 c 0.793 0 1.438 0.211 1.438 0.473 c 0 0.262 -0.645 0.473 -1.438 0.473 c -0.793 0 -1.438 -0.211 -1.438 -0.473 c 0 -0.262 0.645 -0.473 1.438 -0.473 m 3.551 0.781 c 0.793 0 1.438 0.215 1.438 0.477 c 0 0.262 -0.645 0.473 -1.438 0.473 c -0.793 0 -1.438 -0.211 -1.438 -0.473 c 0 -0.262 0.645 -0.477 1.438 -0.477 m -6.527 0.719 c 0.793 0 1.438 0.215 1.438 0.477 c 0 0.262 -0.645 0.473 -1.438 0.473 c -0.797 0 -1.437 -0.211 -1.437 -0.473 c 0 -0.262 0.641 -0.477 1.437 -0.477 m 6.492 1.242 c 0.797 0 1.441 0.211 1.441 0.473 c 0 0.262 -0.645 0.477 -1.441 0.477 c -0.793 0 -1.438 -0.215 -1.438 -0.477 c 0 -0.262 0.645 -0.473 1.438 -0.473 m -2.5 1.797 c 0.793 0 1.438 0.211 1.438 0.473 c 0 0.262 -0.645 0.477 -1.438 0.477 c -0.797 0 -1.438 -0.215 -1.438 -0.477 c 0 -0.262 0.641 -0.473 1.438 -0.473 Z"/>
  <path d="m 17.23 4.555 l -7.05 11.801 c -0.551 -0.008 -1.063 -0.27 -1.434 -0.797 l 7.559 -11.523 c 0.512 -0.117 0.82 0.055 0.93 0.52 Z"/>
  <path d="m 8.703 18.41 c 0.789 -0.105 2.02 -1.113 1.441 -2.574 c -1.371 -0.395 -1.059 -0.594 -1.059 -0.594 c -1.883 0.453 -3.316 2.605 -2.922 3.977 c 0.25 0.867 0.207 0.777 0.207 0.777 c 0.523 -1.676 0.531 -1.371 2.332 -1.586 Z"/>
 </g>
</svg>
